svgs/light/face-vomit.svg

<svg xmlns="http://www.w3.org/2000/svg" viewBox="0 0 576 512"><!--! Font Awesome Pro 6.4.0 by @fontawesome - https://fontawesome.com License - https://fontawesome.com/license (Commercial License) Copyright 2023 Fonticons, Inc. --><path d="M288 32C164.3 32 64 132.3 64 256c0 57.4 21.6 109.7 57 149.3c5.9 6.6 5.3 16.7-1.3 22.6s-16.7 5.3-22.6-1.3C56.7 381.4 32 321.6 32 256C32 114.6 146.6 0 288 0S544 114.6 544 256c0 65.6-24.7 125.4-65.2 170.7c-5.9 6.6-16 7.1-22.6 1.3s-7.1-16-1.3-22.6c35.5-39.6 57-91.9 57-149.3C512 132.3 411.7 32 288 32zM161.3 168.8c4-7.9 13.6-11.1 21.5-7.2l64 32c5.4 2.7 8.8 8.3 8.8 14.3s-3.4 11.6-8.8 14.3l-64 32c-7.9 4-17.5 .7-21.5-7.2s-.7-17.5 7.2-21.5L203.9 208l-35.4-17.7c-7.9-4-11.1-13.6-7.2-21.5zm246.2 21.5L372.2 208l35.4 17.7c7.9 4 11.1 13.6 7.2 21.5s-13.6 11.1-21.5 7.2l-64-32c-5.4-2.7-8.8-8.3-8.8-14.3s3.4-11.6 8.8-14.3l64-32c7.9-4 17.5-.7 21.5 7.2s.7 17.5-7.2 21.5zM16 488a24 24 0 1 1 48 0 24 24 0 1 1 -48 0zm520-56a24 24 0 1 1 0 48 24 24 0 1 1 0-48zM288 368a16 16 0 1 1 32 0 16 16 0 1 1 -32 0zm-16 48a16 16 0 1 1 0 32 16 16 0 1 1 0-32zm92.5-47.6c8.6-1.9 17.2 3.5 19.1 12.1l6.1 27.4c5.2 23.5 20.8 43.4 42.3 54.2l39.1 19.6c6.6 3.3 10.1 10.8 8.4 18s-8.2 12.3-15.6 12.3H112c-7.4 0-13.9-5.1-15.6-12.3s1.8-14.7 8.4-18L144 462.1c21.5-10.8 37.1-30.7 42.3-54.2l6.1-27.4c1.9-8.6 10.5-14.1 19.1-12.1s14.1 10.5 12.1 19.1l-6.1 27.4c-5.8 26.2-20.8 49.2-41.9 65.1H400.4c-21.1-15.9-36.1-38.9-41.9-65.1l-6.1-27.4c-1.9-8.6 3.5-17.2 12.1-19.1zm-189.1 4c-2.4 8.5-11.3 13.4-19.8 11s-13.4-11.3-11-19.8c5.6-19.8 24.1-38.7 48-52.1C217.3 297.6 250 288 288 288s70.7 9.6 95.4 23.5c24 13.5 42.4 32.3 48 52.1c2.4 8.5-2.5 17.3-11 19.8s-17.3-2.5-19.8-11c-2.4-8.3-12.6-21.5-32.9-33C348 328.3 320.7 320 288 320s-60 8.3-79.7 19.4c-20.4 11.5-30.6 24.7-32.9 33z"/></svg>

<svg xmlns="http://www.w3.org/2000/svg" viewBox="0 0 576 512"><!--! Font Awesome Pro 6.3.0 by @fontawesome - https://fontawesome.com License - https://fontawesome.com/license (Commercial License) Copyright 2023 Fonticons, Inc. --><path d="M288 32C164.3 32 64 132.3 64 256C64 313.4 85.55 365.7 121 405.3C126.9 411.9 126.4 422 119.8 427.9C113.2 433.8 103.1 433.3 97.19 426.7C56.66 381.4 32 321.6 32 256C32 114.6 146.6 0 288 0C429.4 0 544 114.6 544 256C544 321.6 519.3 381.4 478.8 426.7C472.9 433.3 462.8 433.8 456.2 427.9C449.6 422 449.1 411.9 454.1 405.3C490.4 365.7 512 313.4 512 256C512 132.3 411.7 32 288 32zM182.8 161.7L246.8 193.7C252.2 196.4 255.6 201.9 255.6 208C255.6 214.1 252.2 219.6 246.8 222.3L182.8 254.3C174.9 258.3 165.3 255.1 161.3 247.2C157.4 239.3 160.6 229.6 168.5 225.7L203.9 208L168.5 190.3C160.6 186.4 157.4 176.7 161.3 168.8C165.3 160.9 174.9 157.7 182.8 161.7V161.7zM372.2 208L407.5 225.7C415.4 229.6 418.6 239.3 414.7 247.2C410.7 255.1 401.1 258.3 393.2 254.3L329.2 222.3C323.8 219.6 320.4 214.1 320.4 208C320.4 201.9 323.8 196.4 329.2 193.7L393.2 161.7C401.1 157.7 410.7 160.9 414.7 168.8C418.6 176.7 415.4 186.4 407.5 190.3L372.2 208zM64 488C64 501.3 53.25 512 40 512C26.75 512 16 501.3 16 488C16 474.7 26.75 464 40 464C53.25 464 64 474.7 64 488zM512 456C512 442.7 522.7 432 536 432C549.3 432 560 442.7 560 456C560 469.3 549.3 480 536 480C522.7 480 512 469.3 512 456zM304 384C295.2 384 288 376.8 288 368C288 359.2 295.2 352 304 352C312.8 352 320 359.2 320 368C320 376.8 312.8 384 304 384zM256 432C256 423.2 263.2 416 272 416C280.8 416 288 423.2 288 432C288 440.8 280.8 448 272 448C263.2 448 256 440.8 256 432zM383.6 380.5L389.7 407.9C394.9 431.4 410.5 451.4 432 462.1L471.2 481.7C477.8 485 481.3 492.5 479.6 499.7C477.9 506.9 471.4 512 464 512H112C104.6 512 98.13 506.9 96.43 499.7C94.72 492.5 98.21 485 104.8 481.7L143.1 462.1C165.5 451.4 181.1 431.4 186.3 407.9L192.4 380.5C194.3 371.9 202.8 366.5 211.5 368.4C220.1 370.3 225.5 378.8 223.6 387.5L217.5 414.9C211.7 441.1 196.7 464.1 175.6 480H400.4C379.3 464.1 364.3 441.1 358.5 414.9L352.4 387.5C350.5 378.8 355.9 370.3 364.5 368.4C373.2 366.5 381.7 371.9 383.6 380.5H383.6zM155.6 383.4C147.1 380.1 142.2 372.1 144.6 363.6C150.2 343.8 168.7 324.1 192.6 311.5C217.3 297.6 249.1 288 288 288C326 288 358.7 297.6 383.4 311.5C407.3 324.1 425.8 343.8 431.4 363.6C433.8 372.1 428.9 380.1 420.4 383.4C411.9 385.8 403 380.9 400.6 372.4C398.2 364 388 350.8 367.7 339.4C347.1 328.3 320.7 320 288 320C255.3 320 228 328.3 208.3 339.4C187.1 350.8 177.8 364 175.4 372.4C172.1 380.9 164.1 385.8 155.6 383.4H155.6z"/></svg>
